picture_stack/L1002669.xmp
<?xml version="1.0" ?>
<x:xmpmeta xmlns:x="adobe:ns:meta/">
  <rdf:RDF xmlns:rdf="http://www.w3.org/1999/02/22-rdf-syntax-ns#">
    <rdf:Description xmlns:crs="http://ns.adobe.com/camera-raw-settings/1.0/" rdf:about="" crs:ProcessVersion="11.0" crs:Exposure2012="0.60" crs:Contrast2012="8" crs:Highlights2012="-25" crs:Shadows2012="50" crs:Whites2012="10" crs:Blacks2012="-5" crs:Temperature="-5" crs:Tint="4" crs:Vibrance="18" crs:Saturation="0" crs:CropAngle="0.0" crs:CropTop="0.0" crs:CropLeft="0.0" crs:CropBottom="1.0" crs:CropRight="1.0" crs:CropConstrainToWarp="1" crs:HasCrop="True" crs:CropUnit="0"/>
  </rdf:RDF>
</x:xmpmeta>
